static/img/device/component-diode1.svg

<svg width="130" height="16" viewBox="0 0 130 16" fill="none" xmlns="http://www.w3.org/2000/svg">
<g clip-path="url(#clip0_74_424)">
<path d="M130 5.62196H0V10.378H130V5.62196Z" fill="white"/>
<mask id="mask0_74_424" style="mask-type:luminance" maskUnits="userSpaceOnUse" x="49" y="0" width="31" height="16">
<path d="M50.5201 0.313725C50.0088 0.313725 49.5999 3.75216 49.5999 7.99372C49.5999 12.2353 50.0088 15.6737 50.5201 15.6737H78.8026C79.3138 15.6737 79.7228 12.2353 79.7228 7.99372C79.7228 3.75216 79.3138 0.313725 78.8026 0.313725H50.5201Z" fill="white"/>
</mask>
<g mask="url(#mask0_74_424)">
<path d="M79.7355 0.313725H49.5999V15.6863H79.7355V0.313725Z" fill="white"/>
</g>
<path d="M78.8154 0.313725H50.5328C50.0216 0.313725 49.6127 3.75216 49.6127 7.99372C49.6127 12.2353 50.0216 15.6737 50.5328 15.6737H78.8154C79.3266 15.6737 79.7355 12.2353 79.7355 7.99372C79.7355 3.75216 79.3266 0.313725 78.8154 0.313725Z" stroke="#231815" stroke-width="0.5" stroke-miterlimit="10"/>
<path d="M53.0761 0.313725C52.5649 0.313725 52.1559 3.75216 52.1559 7.99372C52.1559 12.2353 52.5649 15.6737 53.0761 15.6737H55.3765C54.8653 15.6737 54.4563 12.2353 54.4563 7.99372C54.4563 3.75216 54.8653 0.313725 55.3765 0.313725H53.0761Z" stroke="#231815" stroke-width="0.3" stroke-linecap="round" stroke-linejoin="round"/>
<path d="M0 10.3529H49.651C49.766 13.44 50.1239 15.6737 50.5328 15.6737H78.8282C79.2371 15.6737 79.5822 13.44 79.71 10.3529H130.026M130 5.59686H79.6844C79.5566 2.5349 79.2116 0.313725 78.8154 0.313725H50.5201C50.1111 0.313725 49.766 2.5349 49.651 5.59686H0" stroke="#231815" stroke-width="0.5" stroke-miterlimit="10"/>
</g>
<defs>
<clipPath id="clip0_74_424">
<rect width="130" height="16" fill="white"/>
</clipPath>
</defs>
</svg>

<svg xmlns="http://www.w3.org/2000/svg" width="130" height="16" fill="none" viewBox="0 0 130 16"><g clip-path="url(#a)"><path fill="#fff" d="M130 5.622H0v4.756h130z"/><mask id="b" width="31" height="16" x="49" y="0" maskUnits="userSpaceOnUse" style="mask-type:luminance"><path fill="#fff" d="M50.52.314c-.511 0-.92 3.438-.92 7.68s.409 7.68.92 7.68h28.283c.51 0 .92-3.439.92-7.68 0-4.242-.41-7.68-.92-7.68z"/></mask><g mask="url(#b)"><path fill="#fff" d="M79.736.314H49.6v15.372h30.136z"/></g><path stroke="#231815" stroke-miterlimit="10" stroke-width=".5" d="M78.815.314H50.533c-.511 0-.92 3.438-.92 7.68s.409 7.68.92 7.68h28.282c.512 0 .92-3.439.92-7.68 0-4.242-.408-7.68-.92-7.68Z"/><path stroke="#231815" stroke-linecap="round" stroke-linejoin="round" stroke-width=".3" d="M53.076.314c-.511 0-.92 3.438-.92 7.68s.409 7.68.92 7.68h2.3c-.51 0-.92-3.439-.92-7.68 0-4.242.41-7.68.92-7.68z"/><path stroke="#231815" stroke-miterlimit="10" stroke-width=".5" d="M0 10.353h49.651c.115 3.087.473 5.32.882 5.32h28.295c.41 0 .754-2.233.882-5.32h50.316M130 5.597H79.684c-.127-3.062-.472-5.283-.869-5.283H50.52c-.409 0-.754 2.22-.869 5.283H0"/></g><defs><clipPath id="a"><path fill="#fff" d="M0 0h130v16H0z"/></clipPath></defs></svg>
